material/.icons/material/clipboard-alert-outline.svg

<svg xmlns="http://www.w3.org/2000/svg" viewBox="0 0 24 24"><path d="M19 3a2 2 0 012 2v14a2 2 0 01-2 2H5a2 2 0 01-2-2V5a2 2 0 012-2h4.18C9.6 1.84 10.7 1 12 1c1.3 0 2.4.84 2.82 2H19m-7 0a1 1 0 00-1 1 1 1 0 001 1 1 1 0 001-1 1 1 0 00-1-1M7 7V5H5v14h14V5h-2v2H7m4 2h2v4.5h-2V9m0 6h2v2h-2v-2z"/></svg>

<?xml version="1.0" encoding="UTF-8"?><!DOCTYPE svg PUBLIC "-//W3C//DTD SVG 1.1//EN" "http://www.w3.org/Graphics/SVG/1.1/DTD/svg11.dtd"><svg xmlns="http://www.w3.org/2000/svg" xmlns:xlink="http://www.w3.org/1999/xlink" version="1.1" id="mdi-clipboard-alert-outline" width="24" height="24" viewBox="0 0 24 24"><path d="M19,3A2,2 0 0,1 21,5V19A2,2 0 0,1 19,21H5A2,2 0 0,1 3,19V5A2,2 0 0,1 5,3H9.18C9.6,1.84 10.7,1 12,1C13.3,1 14.4,1.84 14.82,3H19M12,3A1,1 0 0,0 11,4A1,1 0 0,0 12,5A1,1 0 0,0 13,4A1,1 0 0,0 12,3M7,7V5H5V19H19V5H17V7H7M11,9H13V13.5H11V9M11,15H13V17H11V15Z" /></svg>
